src/img/clients/sterningr.svg

<svg width="239" height="101" viewBox="0 0 239 101" fill="none" xmlns="http://www.w3.org/2000/svg">
<path d="M1 69L5.3 68.5999C5.6 69.9999 6.1 71.0999 6.8 71.6999C7.6 72.3999 8.7 72.6999 10 72.6999C11.4 72.6999 12.4 72.4 13.1 71.8C13.9 71.2 14.2 70.6 14.2 69.8C14.2 69.3 14.1 68.8 13.8 68.5C13.5 68.1 12.9 67.8 12.2 67.5L8.7 66.5999C6.4 65.9999 4.7 65.3 3.8 64.5C2.75229 63.6055 2.07106 62.3562 1.88657 60.991C1.70209 59.6258 2.02729 58.2404 2.8 57.0999C3.4 56.0999 4.3 55.4 5.5 54.9C6.6 54.4 8 54.2 9.7 54.2C12.4 54.2 14.4 54.7 15.7 55.9C17.1 57.1 17.9 58.7 17.9 60.7L13.6 60.9C13.4 59.8 13 58.9 12.4 58.5C11.8 58 10.9 57.7 9.7 57.7C8.64044 57.6415 7.58977 57.9217 6.7 58.5C6.2 58.9 6 59.3 6 59.9C6 60.4 6.2 60.8 6.7 61.2C7.2 61.6 8.5 62.0999 10.7 62.5999C12.7 63.0999 14.3 63.5999 15.3 64.0999C16.3194 64.6221 17.1647 65.4296 17.733 66.424C18.3012 67.4184 18.5677 68.5567 18.5 69.6999C18.515 70.9607 18.1513 72.197 17.456 73.2489C16.7607 74.3007 15.7658 75.1197 14.6 75.5999C13.4 76.0999 11.8 76.4 9.9 76.4C7.2 76.4 5.1 75.8 3.7 74.5C2.12315 73.0844 1.15554 71.1133 1 69V69ZM29.3 60.4V63.7H26.5V72.1999L26.9 72.6999C27.1 72.8999 27.4 72.9 27.6 72.9C28 72.9 28.6 72.9 29.3 72.5L29.6 75.6999C28.6 76.0999 27.6 76.4 26.4 76.4C25.6 76.4 25 76.2 24.4 76C23.8822 75.7938 23.432 75.4476 23.1 75C22.7871 74.5161 22.5824 73.9703 22.5 73.4L22.4 70.5V63.7H20.4V60.4H22.4V57.4L26.4 55V60.4H29.3V60.4ZM41.2 71L45.2 71.6999C44.7939 73.0928 43.9529 74.3192 42.8 75.1999C41.5271 76.0392 40.0235 76.4588 38.5 76.4C35.8 76.4 33.8 75.3999 32.5 73.6999C31.438 72.1055 30.9125 70.2137 31 68.3C31 65.8 31.6 63.6999 33 62.2999C34.3 60.7999 36 60.0999 38 60.0999C40.4 60.0999 42.2 60.9 43.6 62.4C44.9 63.9 45.6 66.3 45.5 69.4H35.2C35.2 70.6 35.5 71.6 36.2 72.3C36.8 72.9 37.6 73.3 38.5 73.3C39.2 73.3 39.7 73.0999 40.2 72.6999C40.6 72.3999 40.9 71.8 41.2 71ZM41.4 66.9C41.4 65.7 41.1 64.7999 40.4 64.1999C39.9 63.5999 39.2 63.2 38.4 63.2C37.4 63.2 36.7 63.5999 36.1 64.1999C35.5 64.8999 35.2 65.8 35.2 66.9H41.4V66.9ZM52.8 76H48.7V60.4H52.5V62.7C53.2 61.7 53.7 60.8999 54.3 60.5999C54.8 60.2999 55.3 60.0999 56 60.0999C57 60.0999 57.9 60.4 58.8 60.9L57.5 64.5C56.8 64 56.1 63.7999 55.5 63.7999C55 63.7999 54.5 63.9 54.1 64.3C53.7 64.6 53.4 65.2 53.1 66C52.8192 67.7181 52.7187 69.4609 52.8 71.1999V76ZM74.7 76H70.6V68C70.6 66.4 70.5 65.3 70.3 64.8C70.1464 64.3172 69.8376 63.8986 69.4217 63.6093C69.0059 63.32 68.5061 63.1761 68 63.2C67.3 63.2 66.7 63.3999 66.1 63.7999C65.5 64.1999 65.1 64.8 64.9 65.4C64.7 66 64.6 67.2 64.6 69V76H60.6V60.4H64.3V62.7C65.7 61 67.4 60.0999 69.5 60.0999C70.4 60.0999 71.2 60.2999 72 60.5999C72.6383 60.8447 73.2033 61.2489 73.641 61.7741C74.0786 62.2993 74.3744 62.9279 74.5 63.5999L74.7 66.3V76V76Z" fill="#CAD5DD"/>
<path d="M78.8 76V54.5H83V76H78.7H78.8ZM101.4 76H97.3V68C97.3 66.4 97.2 65.3 97 64.8C96.8463 64.3172 96.5376 63.8987 96.1217 63.6094C95.7058 63.32 95.206 63.1761 94.7 63.2C94 63.2 93.4 63.4 92.8 63.8C92.2 64.2 91.8 64.8 91.6 65.4C91.4 66 91.3 67.2 91.3 69V76H87.2V60.4H91V62.7C92.4 61 94 60.1 96.2 60.1C97.1 60.1 97.9 60.3 98.6 60.6C99.2383 60.8447 99.8033 61.249 100.241 61.7742C100.679 62.2994 100.974 62.928 101.1 63.6C101.3 64.2 101.4 65.1 101.4 66.3V76ZM105.2 77L109.9 77.6C109.9 78.1 110.2 78.6 110.4 78.7C110.8 79 111.4 79.2 112.3 79.2C113.3 79.2 114.2 79 114.7 78.7C115.1 78.5 115.3 78.1 115.5 77.7L115.7 75.7V73.5C115.186 74.274 114.487 74.9078 113.666 75.3442C112.846 75.7806 111.929 76.006 111 76C109 76 107.3 75.1 106 73.3C105.013 71.7502 104.525 69.9356 104.6 68.1C104.6 65.5 105.3 63.5 106.6 62.1C107.8 60.8 109.3 60.1 111.2 60.1C113.2 60.1 114.7 60.9 116 62.6V60.4H119.8V74.4C119.8 76.2 119.7 77.6 119.4 78.5C119.1 79.5 118.6 80.1 118.1 80.7C117.5 81.2 116.8 81.6 115.9 81.9C114.9 82.2 113.9 82.3 112.4 82.3C109.8 82.3 107.9 81.9 106.8 81C105.8 80 105.2 79 105.2 77.5V77V77ZM108.9 67.9C108.9 69.5 109.2 70.8 109.9 71.5C110.169 71.8594 110.515 72.1538 110.914 72.3615C111.312 72.5692 111.751 72.6848 112.2 72.7C113.2 72.7 114 72.3 114.7 71.5C115.4 70.7 115.7 69.5 115.7 68C115.7 66.4 115.4 65.2 114.7 64.4C114.411 64.0382 114.046 63.7435 113.632 63.5363C113.217 63.3291 112.763 63.2144 112.3 63.2C111.817 63.1841 111.338 63.2849 110.903 63.4938C110.468 63.7027 110.089 64.0136 109.8 64.4C109.2 65.2 108.8 66.4 108.8 67.9H108.9ZM127.9 76H123.7V60.4H127.6V62.7C128.2 61.7 128.8 60.9 129.3 60.6C129.8 60.3 130.4 60.1 131.1 60.1C132.1 60.1 132.9 60.4 133.8 60.9L132.5 64.5C131.8 64 131.2 63.8 130.6 63.8C130 63.8 129.6 63.9 129.1 64.3C128.7 64.6 128.4 65.2 128.1 66C127.853 67.7217 127.786 69.4644 127.9 71.2V76V76ZM144.6 71L148.7 71.7C148.274 73.1097 147.395 74.3398 146.2 75.2C144.927 76.0392 143.423 76.4588 141.9 76.4C139.2 76.4 137.2 75.4 135.9 73.7C134.831 72.1085 134.305 70.2146 134.4 68.3C134.4 65.8 135.1 63.7 136.4 62.3C137.8 60.8 139.4 60.1 141.5 60.1C143.8 60.1 145.7 60.9 147 62.4C148.3 63.9 149 66.3 149 69.4H138.6C138.6 70.6 139 71.6 139.6 72.3C140.2 72.9 141 73.3 142 73.3C142.6 73.3 143.2 73.1 143.6 72.7C144.1 72.4 144.4 71.8 144.6 71V71ZM144.8 66.9C144.8 65.7 144.5 64.8 143.9 64.2C143.3 63.6 142.6 63.2 141.8 63.2C140.8 63.2 140.1 63.6 139.6 64.2C139 64.9 138.6 65.8 138.6 66.9H144.8ZM166.6 76H162.7V73.7C162.165 74.5082 161.437 75.1696 160.581 75.6238C159.725 76.0779 158.769 76.3104 157.8 76.3C156.943 76.2915 156.099 76.0996 155.322 75.7374C154.546 75.3752 153.857 74.851 153.3 74.2C151.913 72.5169 151.2 70.3787 151.3 68.2C151.3 65.5 152 63.5 153.3 62.2C153.863 61.5275 154.567 60.9867 155.362 60.6157C156.156 60.2446 157.023 60.0523 157.9 60.0523C158.777 60.0523 159.644 60.2446 160.438 60.6157C161.233 60.9867 161.937 61.5275 162.5 62.2V54.5H166.5V76H166.6ZM155.6 67.9C155.6 69.5 155.8 70.7 156.3 71.5C156.9 72.5 157.9 73.1 159.1 73.1C159.566 73.1 160.025 72.9916 160.442 72.7833C160.858 72.575 161.221 72.2726 161.5 71.9C162.1 71.1 162.5 69.9 162.5 68.3C162.5 66.5 162.1 65.3 161.5 64.4C161.211 64.0136 160.832 63.7027 160.397 63.4938C159.962 63.2849 159.482 63.1841 159 63.2C158 63.2 157.2 63.6 156.6 64.4C155.9 65.2 155.6 66.4 155.6 67.9V67.9ZM170.6 58.3V54.5H174.8V58.3H170.6ZM170.6 76V60.4H174.8V76H170.6ZM188 71L192.1 71.7C191.667 73.1064 190.79 74.3346 189.6 75.2C188.327 76.0392 186.823 76.4588 185.3 76.4C182.6 76.4 180.6 75.4 179.3 73.7C178.238 72.1055 177.712 70.2138 177.8 68.3C177.8 65.8 178.5 63.7 179.8 62.3C181.2 60.8 182.8 60.1 184.9 60.1C187.2 60.1 189.1 60.9 190.4 62.4C191.7 63.9 192.4 66.3 192.4 69.4H182C182 70.6 182.4 71.6 183 72.3C183.6 72.9 184.4 73.3 185.4 73.3C186 73.3 186.6 73.1 187 72.7C187.4 72.4 187.8 71.8 188 71ZM188.2 66.9C188.2 65.7 187.9 64.8 187.3 64.2C186.7 63.6 186 63.2 185.2 63.2C184.2 63.2 183.5 63.6 182.9 64.2C182.4 64.9 182.1 65.8 182.1 66.9H188.2V66.9ZM209.8 76H205.8V68C205.8 66.4 205.6 65.3 205.5 64.8C205.346 64.3172 205.038 63.8987 204.622 63.6094C204.206 63.32 203.706 63.1761 203.2 63.2C202.5 63.2 201.8 63.4 201.2 63.8C200.7 64.2 200.3 64.8 200.1 65.4C199.9 66 199.8 67.2 199.8 69V76H195.7V60.4H199.5V62.7C200.8 61 202.5 60.1 204.6 60.1C205.6 60.1 206.3 60.3 207.1 60.6C207.738 60.8447 208.303 61.249 208.741 61.7742C209.179 62.2994 209.474 62.928 209.6 63.6C209.8 64.2 209.8 65.1 209.8 66.3V76V76ZM221.2 60.4V63.7H218.4V72.2C218.4 72.4 218.6 72.6 218.8 72.7C219 72.9 219.2 72.9 219.5 72.9C219.9 72.9 220.5 72.9 221.1 72.5L221.5 75.7C220.5 76.1 219.5 76.4 218.2 76.4C217.5 76.4 216.8 76.2 216.2 76C215.682 75.7939 215.232 75.4476 214.9 75C214.622 74.508 214.452 73.9627 214.4 73.4C214.3 72.9 214.2 72 214.2 70.5V63.7H212.3V60.4H214.3V57.4L218.3 55V60.4H221.2V60.4ZM222.6 71.6L226.7 70.9C226.787 71.635 227.144 72.3117 227.7 72.8C228.3 73.2 229.1 73.4 230 73.4C230.843 73.4586 231.683 73.2486 232.4 72.8C232.8 72.5 233 72.2 233 71.7C233.012 71.5528 232.992 71.4047 232.94 71.2663C232.888 71.128 232.806 71.0029 232.7 70.9C232.5 70.7 232 70.5 231.3 70.4C228 69.6 225.9 69 225 68.4C224.405 68.0334 223.917 67.5173 223.583 66.9033C223.25 66.2892 223.083 65.5985 223.1 64.9C223.1 63.5 223.7 62.4 224.7 61.5C225.8 60.5 227.5 60.1 229.7 60.1C231.8 60.1 233.4 60.4 234.4 61.1C235.4 61.8 236.2 62.9 236.6 64.2L232.6 64.9C232.6 64.3 232.2 63.9 231.7 63.5C231.3 63.2 230.7 63.1 229.7 63.1C228.7 63.1 227.9 63.2 227.4 63.5C227.276 63.5931 227.175 63.7139 227.106 63.8528C227.036 63.9916 227 64.1448 227 64.3C227 64.6 227.1 64.9 227.4 65.1C227.7 65.4 229 65.7 231.2 66.2C233.4 66.7 234.9 67.4 235.8 68.1C236.7 68.8 237.1 69.8 237.1 71.1C237.1 72.6 236.5 73.8 235.3 74.8C234.1 75.8 232.3 76.4 230 76.4C228 76.4 226.2 75.9 225 75.1C223.8 74.2647 222.947 73.0201 222.6 71.6V71.6ZM191.3 98V86.5H196.3C197.3 86.5 198.1 86.7 198.7 86.9C199.2 87.1 199.7 87.4 199.9 87.9C200.3 88.5 200.4 89 200.4 89.7C200.4 90.5 200.2 91.2 199.6 91.7C198.934 92.2913 198.089 92.6432 197.2 92.7L198.1 93.4L199.4 94.9L201.4 98H199.4L197.9 95.6C197.59 95.0526 197.256 94.5188 196.9 94L196.1 93.3L195.4 93H192.8V98H191.3ZM192.8 91.6H196C196.574 91.6315 197.149 91.5639 197.7 91.4L198.5 90.7C198.8 90.4 198.9 90 198.9 89.7C198.9 89.1 198.7 88.7 198.3 88.3C197.9 88 197.3 87.8 196.4 87.8H192.8V91.6V91.6ZM208 98V96.8C207.716 97.2528 207.315 97.6214 206.841 97.8675C206.366 98.1137 205.834 98.2284 205.3 98.2C204.8 98.2 204.3 98.1 203.9 97.9C203.5 97.7 203.2 97.5 203 97.2L202.6 96.2L202.5 94.8V89.7H203.9V95.8L204.5 96.7C204.8 96.9 205.2 97 205.6 97L206.8 96.7C207.2 96.4 207.4 96.1 207.6 95.7L207.8 94.1V89.7H209.2V98H208ZM210.9 95.5L212.3 95.3C212.3 95.9 212.5 96.3 212.9 96.6C213.3 96.9 213.8 97 214.4 97C215 97 215.5 96.9 215.8 96.6C216.1 96.4 216.3 96.1 216.3 95.7C216.3 95.4 216.2 95.1 215.9 95C215.7 94.8 215.2 94.7 214.5 94.5L212.3 93.8C211.9 93.6 211.6 93.4 211.4 93C211.2 92.7 211.1 92.3 211.1 92C211.1 91.5 211.1 91.2 211.3 90.9L212 90.1L213 89.7L214.2 89.5C214.8 89.5 215.4 89.6 215.9 89.8C216.4 90 216.7 90.2 216.9 90.6C217.2 90.9 217.4 91.3 217.4 91.8L216.1 92C216 91.6 215.8 91.3 215.5 91C215.142 90.7757 214.722 90.6707 214.3 90.7C213.6 90.7 213.1 90.7 212.9 91C212.6 91.2 212.5 91.5 212.5 91.7L212.6 92.2C212.7 92.4 212.9 92.5 213.2 92.6L214.4 93L216.4 93.6C216.9 93.8 217.2 94 217.4 94.4C217.6 94.7 217.8 95.1 217.8 95.6C217.8 96 217.6 96.5 217.3 96.9C217.1 97.3 216.7 97.6 216.2 97.9C215.6 98.1 215.1 98.2 214.4 98.2C213.512 98.2511 212.632 98.0048 211.9 97.5C211.4 97.1 211 96.4 210.9 95.5V95.5ZM218.9 95.5L220.3 95.3C220.3 95.9 220.5 96.3 220.9 96.6C221.3 96.9 221.8 97 222.4 97C223 97 223.5 96.9 223.8 96.6C224.1 96.4 224.3 96.1 224.3 95.7C224.3 95.4 224.2 95.1 223.9 95C223.7 94.8 223.2 94.7 222.5 94.5L220.3 93.8C219.9 93.6 219.6 93.4 219.4 93C219.2 92.7 219.1 92.3 219.1 92C219.1 91.5 219.1 91.2 219.3 90.9L220 90.1L221 89.7L222.2 89.5C222.8 89.5 223.4 89.6 223.9 89.8C224.4 90 224.7 90.2 224.9 90.6C225.2 90.9 225.4 91.3 225.4 91.8L224.1 92C224 91.6 223.8 91.3 223.5 91C223.142 90.7757 222.722 90.6707 222.3 90.7C221.6 90.7 221.1 90.7 220.9 91C220.6 91.2 220.5 91.5 220.5 91.7L220.6 92.2C220.7 92.4 220.9 92.5 221.2 92.6L222.4 93L224.4 93.6C224.9 93.8 225.2 94 225.4 94.4C225.6 94.7 225.8 95.1 225.8 95.6C225.8 96 225.6 96.5 225.3 96.9C225.1 97.3 224.7 97.6 224.2 97.9C223.6 98.1 223.1 98.2 222.4 98.2C221.512 98.2511 220.632 98.0048 219.9 97.5C219.4 97.1 219 96.4 218.9 95.5V95.5ZM227.4 88.2V86.5H228.8V88.2H227.4ZM227.4 98V89.7H228.8V98H227.4ZM236.4 97L234.9 98L233.3 98.2C232.4 98.2 231.7 98 231.3 97.5C230.8 97.1 230.5 96.5 230.5 95.8C230.483 95.4091 230.566 95.0203 230.741 94.6703C230.916 94.3203 231.177 94.0208 231.5 93.8L232.5 93.4L233.8 93.2C234.9 93.1 235.8 92.9 236.3 92.7V92.4C236.3 91.8 236.2 91.4 235.9 91.2C235.5 90.8 235 90.7 234.3 90.7C233.6 90.7 233.1 90.8 232.8 91C232.5 91.3 232.3 91.7 232.1 92.3L231 92C231 91.4 231.3 91 231.6 90.5C231.9 90.2 232.3 89.9 232.8 89.7C233.4 89.5 234 89.4 234.7 89.4C235.28 89.4007 235.855 89.5022 236.4 89.7C236.9 89.8 237.2 90 237.4 90.3C237.6 90.5 237.8 90.9 237.8 91.3L237.9 92.5V97L238.3 98H236.9C236.742 97.6868 236.641 97.3483 236.6 97H236.4ZM236.3 93.8L234 94.4L232.8 94.6C232.555 94.6863 232.344 94.85 232.2 95.0664C232.055 95.2828 231.985 95.5403 232 95.8C232 96.1 232.2 96.5 232.4 96.8C232.7 97 233.1 97.1 233.7 97.1C234.2 97.1 234.7 97 235.1 96.7C235.5 96.5 235.9 96.2 236.1 95.7L236.3 94.4V93.8Z" fill="#CAD5DD"/>
<path d="M31.424 44.3779C41.92 50.1629 52.1193 47.3855 54.2047 38.1745C56.2901 28.9635 49.4721 16.8069 38.9761 11.022C28.4801 5.237 18.2809 8.01435 16.1954 17.2253C14.11 26.4363 20.9281 38.5929 31.424 44.3779Z" fill="#CAD5DD"/>
<path d="M41.3999 25.9999C39.3999 35.1999 42.3999 25.2999 31.8999 19.5999C21.3999 13.7999 25.3999 17.5999 21.8999 9.59991C21.8999 9.29991 30.8999 4.09991 44.3999 14.5999C40.8999 21.5999 43.4999 16.8999 41.3999 26.0999V25.9999Z" fill="#CAD5DD"/>
<path d="M21.4 9L34 16L45 14.6V27.6L55 37.6H43L38.5 47.6L31 34.6L18.5 29.6L25.5 22.1L21.5 9.1L21.4 9Z" fill="white"/>
</svg>

<svg width="239" height="101" fill="none" xmlns="http://www.w3.org/2000/svg"><path d="m1 69 4.3-.4c.3 1.4.8 2.5 1.5 3.1.8.7 1.9 1 3.2 1 1.4 0 2.4-.3 3.1-.9.8-.6 1.1-1.2 1.1-2 0-.5-.1-1-.4-1.3-.3-.4-.9-.7-1.6-1l-3.5-.9c-2.3-.6-4-1.3-4.9-2.1a5.6 5.6 0 0 1-1-7.4c.6-1 1.5-1.7 2.7-2.2 1.1-.5 2.5-.7 4.2-.7 2.7 0 4.7.5 6 1.7 1.4 1.2 2.2 2.8 2.2 4.8l-4.3.2c-.2-1.1-.6-2-1.2-2.4-.6-.5-1.5-.8-2.7-.8a5 5 0 0 0-3 .8c-.5.4-.7.8-.7 1.4 0 .5.2.9.7 1.3.5.4 1.8.9 4 1.4 2 .5 3.6 1 4.6 1.5a5.9 5.9 0 0 1 3.2 5.6 6.3 6.3 0 0 1-3.9 5.9c-1.2.5-2.8.8-4.7.8-2.7 0-4.8-.6-6.2-1.9A8.2 8.2 0 0 1 1 69Zm28.3-8.6v3.3h-2.8v8.5l.4.5c.2.2.5.2.7.2.4 0 1 0 1.7-.4l.3 3.2c-1 .4-2 .7-3.2.7-.8 0-1.4-.2-2-.4a3 3 0 0 1-1.3-1 4 4 0 0 1-.6-1.6l-.1-2.9v-6.8h-2v-3.3h2v-3l4-2.4v5.4h2.9ZM41.2 71l4 .7a6.8 6.8 0 0 1-2.4 3.5 7.3 7.3 0 0 1-4.3 1.2c-2.7 0-4.7-1-6-2.7a9 9 0 0 1-1.5-5.4c0-2.5.6-4.6 2-6 1.3-1.5 3-2.2 5-2.2 2.4 0 4.2.8 5.6 2.3 1.3 1.5 2 3.9 1.9 7H35.2c0 1.2.3 2.2 1 2.9.6.6 1.4 1 2.3 1 .7 0 1.2-.2 1.7-.6.4-.3.7-.9 1-1.7Zm.2-4.1c0-1.2-.3-2.1-1-2.7-.5-.6-1.2-1-2-1-1 0-1.7.4-2.3 1-.6.7-.9 1.6-.9 2.7h6.2ZM52.8 76h-4.1V60.4h3.8v2.3c.7-1 1.2-1.8 1.8-2.1.5-.3 1-.5 1.7-.5 1 0 1.9.3 2.8.8l-1.3 3.6c-.7-.5-1.4-.7-2-.7-.5 0-1 .1-1.4.5-.4.3-.7.9-1 1.7a25 25 0 0 0-.3 5.2V76Zm21.9 0h-4.1v-8c0-1.6-.1-2.7-.3-3.2a2.3 2.3 0 0 0-2.3-1.6c-.7 0-1.3.2-1.9.6-.6.4-1 1-1.2 1.6-.2.6-.3 1.8-.3 3.6v7h-4V60.4h3.7v2.3c1.4-1.7 3.1-2.6 5.2-2.6.9 0 1.7.2 2.5.5a4 4 0 0 1 2.5 3l.2 2.7V76Z" fill="#E94A51"/><path d="M78.8 76V54.5H83V76h-4.3Zm22.6 0h-4.1v-8c0-1.6-.1-2.7-.3-3.2a2.3 2.3 0 0 0-2.3-1.6c-.7 0-1.3.2-1.9.6-.6.4-1 1-1.2 1.6-.2.6-.3 1.8-.3 3.6v7h-4.1V60.4H91v2.3c1.4-1.7 3-2.6 5.2-2.6.9 0 1.7.2 2.4.5a4 4 0 0 1 2.5 3c.2.6.3 1.5.3 2.7V76Zm3.8 1 4.7.6c0 .5.3 1 .5 1.1.4.3 1 .5 1.9.5 1 0 1.9-.2 2.4-.5.4-.2.6-.6.8-1l.2-2v-2.2A5.6 5.6 0 0 1 111 76c-2 0-3.7-.9-5-2.7a9 9 0 0 1-1.4-5.2c0-2.6.7-4.6 2-6 1.2-1.3 2.7-2 4.6-2 2 0 3.5.8 4.8 2.5v-2.2h3.8v14c0 1.8-.1 3.2-.4 4.1-.3 1-.8 1.6-1.3 2.2-.6.5-1.3.9-2.2 1.2-1 .3-2 .4-3.5.4-2.6 0-4.5-.4-5.6-1.3-1-1-1.6-2-1.6-3.5V77Zm3.7-9.1c0 1.6.3 2.9 1 3.6a3 3 0 0 0 2.3 1.2c1 0 1.8-.4 2.5-1.2.7-.8 1-2 1-3.5 0-1.6-.3-2.8-1-3.6a3.2 3.2 0 0 0-2.4-1.2 3 3 0 0 0-2.5 1.2c-.6.8-1 2-1 3.5Zm19 8.1h-4.2V60.4h3.9v2.3c.6-1 1.2-1.8 1.7-2.1.5-.3 1.1-.5 1.8-.5 1 0 1.8.3 2.7.8l-1.3 3.6c-.7-.5-1.3-.7-1.9-.7-.6 0-1 .1-1.5.5-.4.3-.7.9-1 1.7a25 25 0 0 0-.2 5.2V76Zm16.7-5 4.1.7a6.7 6.7 0 0 1-2.5 3.5 7.3 7.3 0 0 1-4.3 1.2c-2.7 0-4.7-1-6-2.7a8.9 8.9 0 0 1-1.5-5.4c0-2.5.7-4.6 2-6 1.4-1.5 3-2.2 5.1-2.2 2.3 0 4.2.8 5.5 2.3 1.3 1.5 2 3.9 2 7h-10.4c0 1.2.4 2.2 1 2.9.6.6 1.4 1 2.4 1 .6 0 1.2-.2 1.6-.6.5-.3.8-.9 1-1.7Zm.2-4.1c0-1.2-.3-2.1-.9-2.7-.6-.6-1.3-1-2.1-1-1 0-1.7.4-2.2 1-.6.7-1 1.6-1 2.7h6.2Zm21.8 9.1h-3.9v-2.3a5.8 5.8 0 0 1-4.9 2.6 6 6 0 0 1-4.5-2.1 8.8 8.8 0 0 1-2-6c0-2.7.7-4.7 2-6a6 6 0 0 1 9.2 0v-7.7h4V76Zm-11-8.1c0 1.6.2 2.8.7 3.6.6 1 1.6 1.6 2.8 1.6a3 3 0 0 0 2.4-1.2c.6-.8 1-2 1-3.6 0-1.8-.4-3-1-3.9a3 3 0 0 0-2.5-1.2c-1 0-1.8.4-2.4 1.2-.7.8-1 2-1 3.5Zm15-9.6v-3.8h4.2v3.8h-4.2Zm0 17.7V60.4h4.2V76h-4.2Zm17.4-5 4.1.7a6.8 6.8 0 0 1-2.5 3.5 7.3 7.3 0 0 1-4.3 1.2c-2.7 0-4.7-1-6-2.7a9 9 0 0 1-1.5-5.4c0-2.5.7-4.6 2-6 1.4-1.5 3-2.2 5.1-2.2 2.3 0 4.2.8 5.5 2.3 1.3 1.5 2 3.9 2 7H182c0 1.2.4 2.2 1 2.9.6.6 1.4 1 2.4 1 .6 0 1.2-.2 1.6-.6.4-.3.8-.9 1-1.7Zm.2-4.1c0-1.2-.3-2.1-.9-2.7-.6-.6-1.3-1-2.1-1-1 0-1.7.4-2.3 1-.5.7-.8 1.6-.8 2.7h6.1Zm21.6 9.1h-4v-8c0-1.6-.2-2.7-.3-3.2a2.3 2.3 0 0 0-2.3-1.6c-.7 0-1.4.2-2 .6-.5.4-.9 1-1.1 1.6-.2.6-.3 1.8-.3 3.6v7h-4.1V60.4h3.8v2.3c1.3-1.7 3-2.6 5.1-2.6 1 0 1.7.2 2.5.5a4 4 0 0 1 2.5 3c.2.6.2 1.5.2 2.7V76Zm11.4-15.6v3.3h-2.8v8.5c0 .2.2.4.4.5.2.2.4.2.7.2.4 0 1 0 1.6-.4l.4 3.2c-1 .4-2 .7-3.3.7-.7 0-1.4-.2-2-.4a3 3 0 0 1-1.3-1 4 4 0 0 1-.5-1.6c-.1-.5-.2-1.4-.2-2.9v-6.8h-1.9v-3.3h2v-3l4-2.4v5.4h2.9Zm1.4 11.2 4.1-.7a3 3 0 0 0 1 1.9c.6.4 1.4.6 2.3.6a4 4 0 0 0 2.4-.6c.4-.3.6-.6.6-1.1a1 1 0 0 0-.3-.8c-.2-.2-.7-.4-1.4-.5-3.3-.8-5.4-1.4-6.3-2a4 4 0 0 1-1.9-3.5c0-1.4.6-2.5 1.6-3.4 1.1-1 2.8-1.4 5-1.4 2.1 0 3.7.3 4.7 1s1.8 1.8 2.2 3.1l-4 .7c0-.6-.4-1-.9-1.4-.4-.3-1-.4-2-.4s-1.8.1-2.3.4a1 1 0 0 0-.4.8c0 .3.1.6.4.8.3.3 1.6.6 3.8 1.1 2.2.5 3.7 1.2 4.6 1.9.9.7 1.3 1.7 1.3 3 0 1.5-.6 2.7-1.8 3.7-1.2 1-3 1.6-5.3 1.6-2 0-3.8-.5-5-1.3a6 6 0 0 1-2.4-3.5ZM191.3 98V86.5h5c1 0 1.8.2 2.4.4.5.2 1 .5 1.2 1 .4.6.5 1.1.5 1.8 0 .8-.2 1.5-.8 2a4 4 0 0 1-2.4 1l.9.7 1.3 1.5 2 3.1h-2l-1.5-2.4a22 22 0 0 0-1-1.6l-.8-.7-.7-.3h-2.6v5h-1.5Zm1.5-6.4h3.2a5 5 0 0 0 1.7-.2l.8-.7c.3-.3.4-.7.4-1 0-.6-.2-1-.6-1.4-.4-.3-1-.5-1.9-.5h-3.6v3.8ZM208 98v-1.2a3 3 0 0 1-2.7 1.4c-.5 0-1-.1-1.4-.3-.4-.2-.7-.4-.9-.7l-.4-1-.1-1.4v-5.1h1.4v6.1l.6.9c.3.2.7.3 1.1.3l1.2-.3c.4-.3.6-.6.8-1l.2-1.6v-4.4h1.4V98h-1.2Zm2.9-2.5 1.4-.2c0 .6.2 1 .6 1.3.4.3.9.4 1.5.4s1.1-.1 1.4-.4c.3-.2.5-.5.5-.9 0-.3-.1-.6-.4-.7-.2-.2-.7-.3-1.4-.5l-2.2-.7c-.4-.2-.7-.4-.9-.8-.2-.3-.3-.7-.3-1 0-.5 0-.8.2-1.1l.7-.8 1-.4 1.2-.2c.6 0 1.2.1 1.7.3.5.2.8.4 1 .8.3.3.5.7.5 1.2l-1.3.2c-.1-.4-.3-.7-.6-1a2 2 0 0 0-1.2-.3c-.7 0-1.2 0-1.4.3-.3.2-.4.5-.4.7l.1.5c.1.2.3.3.6.4l1.2.4 2 .6c.5.2.8.4 1 .8.2.3.4.7.4 1.2 0 .4-.2.9-.5 1.3-.2.4-.6.7-1.1 1-.6.2-1.1.3-1.8.3a4 4 0 0 1-2.5-.7c-.5-.4-.9-1.1-1-2Zm8 0 1.4-.2c0 .6.2 1 .6 1.3.4.3.9.4 1.5.4s1.1-.1 1.4-.4c.3-.2.5-.5.5-.9 0-.3-.1-.6-.4-.7-.2-.2-.7-.3-1.4-.5l-2.2-.7c-.4-.2-.7-.4-.9-.8-.2-.3-.3-.7-.3-1 0-.5 0-.8.2-1.1l.7-.8 1-.4 1.2-.2c.6 0 1.2.1 1.7.3.5.2.8.4 1 .8.3.3.5.7.5 1.2l-1.3.2c-.1-.4-.3-.7-.6-1a2 2 0 0 0-1.2-.3c-.7 0-1.2 0-1.4.3-.3.2-.4.5-.4.7l.1.5c.1.2.3.3.6.4l1.2.4 2 .6c.5.2.8.4 1 .8.2.3.4.7.4 1.2 0 .4-.2.9-.5 1.3-.2.4-.6.7-1.1 1-.6.2-1.1.3-1.8.3a4 4 0 0 1-2.5-.7c-.5-.4-.9-1.1-1-2Zm8.5-7.3v-1.7h1.4v1.7h-1.4Zm0 9.8v-8.3h1.4V98h-1.4Zm9-1-1.5 1-1.6.2c-.9 0-1.6-.2-2-.7-.5-.4-.8-1-.8-1.7a2.3 2.3 0 0 1 1-2l1-.4 1.3-.2c1.1-.1 2-.3 2.5-.5v-.3c0-.6-.1-1-.4-1.2-.4-.4-.9-.5-1.6-.5-.7 0-1.2.1-1.5.3-.3.3-.5.7-.7 1.3L231 92c0-.6.3-1 .6-1.5.3-.3.7-.6 1.2-.8.6-.2 1.2-.3 1.9-.3a5 5 0 0 1 1.7.3c.5.1.8.3 1 .6.2.2.4.6.4 1l.1 1.2V97l.4 1h-1.4a3 3 0 0 1-.3-1Zm-.1-3.2-2.3.6-1.2.2a1.2 1.2 0 0 0-.8 1.2c0 .3.2.7.4 1 .3.2.7.3 1.3.3.5 0 1-.1 1.4-.4.4-.2.8-.5 1-1l.2-1.3v-.6Z" fill="#2483B0"/><ellipse rx="21.7" ry="17.1" transform="matrix(.87579 .4827 -.22082 .97532 35.2 27.7)" fill="#348AB5"/><path d="M41.4 26c-2 9.2 1-.7-9.5-6.4-10.5-5.8-6.5-2-10-10 0-.3 9-5.5 22.5 5-3.5 7-.9 2.3-3 11.5Z" fill="#E1021E"/><path d="M21.4 9 34 16l11-1.4v13l10 10H43l-4.5 10-7.5-13-12.5-5 7-7.5-4-13Z" fill="#fff"/></svg>
